src/components/tabs/deposits.svg

<svg width="34" height="33" viewBox="0 0 34 33" fill="none" xmlns="http://www.w3.org/2000/svg">
                            <path d="M4.20734 26.063H29.7924V4.36579H4.20734V26.063ZM12.8681 11.7959C14.4742 11.7959 15.8268 12.8933 16.2055 14.3724H23.727V16.056H16.2055C15.8267 17.5352 14.4742 18.6327 12.8681 18.6327C10.9695 18.6327 9.42492 17.0991 9.42492 15.2142C9.42483 13.3294 10.9695 11.7959 12.8681 11.7959Z" fill="#2C36F2"/>
                            <path d="M0 0V30.4287H2.48008V33H5.44779V30.4287H28.5522V33H31.5199V30.4287H34V0H0ZM2.51162 27.7466V2.68218H31.4884V27.7466H2.51162Z" fill="#2C36F2"/>
                        </svg>

<svg width="34" height="33" fill="none" xmlns="http://www.w3.org/2000/svg"><path d="M4.207 26.063h25.585V4.366H4.207v21.697Zm8.661-14.267a3.445 3.445 0 0 1 3.338 2.576h7.521v1.684h-7.521a3.445 3.445 0 0 1-3.338 2.577c-1.899 0-3.443-1.534-3.443-3.419s1.544-3.418 3.443-3.418Z" fill="#2C36F2"/><path d="M0 0v30.429h2.48V33h2.968v-2.571h23.104V33h2.968v-2.571H34V0H0Zm2.512 27.747V2.682h28.976v25.065H2.512Z" fill="#2C36F2"/></svg>
